; generated by PrusaSlicer 2.4.0+win64 on 2021-12-27 at 04:53:44 UTC

; 

; external perimeters extrusion width = 0.60mm
; perimeters extrusion width = 0.50mm
; infill extrusion width = 0.50mm
; solid infill extrusion width = 0.50mm
; top infill extrusion width = 0.45mm
; first layer extrusion width = 0.42mm

M201 X1500 Y1500 Z200 E5000 ; sets maximum accelerations, mm/sec^2
M203 X200 Y200 Z12 E120 ; sets maximum feedrates, mm/sec
M204 P1500 R1500 T1500 ; sets acceleration (P, T) and retract acceleration (R), mm/sec^2
M205 X8.00 Y8.00 Z0.40 E4.50 ; sets the jerk limits, mm/sec
M205 S0 T0 ; sets the minimum extruding and travel feed rate, mm/sec
M107
;TYPE:Custom
G90 ; use absolute coordinates
M83 ; extruder relative mode
M104 S136.5
M190 S42.5 ; set bed temp
M118 Waiting for Bed Temperature to get to  42.5 oC
M140 S50
M209 S0
G1 Z2
G92 Z2.05; For thin getting Closer to the Printbed
M104 S195
M118 Homing
G28 ; home all 
M118 Leveling the Bed
G29 ; mesh bed leveling
M190 S50 ; wait for bed temp
M118 Waiting for Extruder Temperature to get to 195 oC


M75
M118 Now the timer Starts
M118 Priming the nozzle
G1 Y0.0 F2000.0 ; go outside print area
G92 E0

G1 X170 F2000
G1 Z0.35 F1000
G1 X60.0 E15 F1000.0 ; intro line
G92 E0
G1 Y0.35 F2000
G1 X170.0 E15 F1000.0 ; intro line
G92 E0
G1 Y0.7
G1 X60 E15 F1000.0 ; intro line
G1 Z2
G92 E0.0
;M221 S95
M118 Starting the Print
G1 Z1
G92 Z1; first layer compression
G21 ; set units to millimeters
G90 ; use absolute coordinates
M83 ; use relative distances for extrusion
M900 K0.05 ; Filament gcode LA 1.5
M900 K30 ; Filament gcode LA 1.0
M107
;LAYER_CHANGE
;Z:0.2
;HEIGHT:0.2
M105
;BEFORE_LAYER_CHANGE
;G92 E0.0
;0.2
M117 Layer 0 at 0.2mm
M118 Printing Layer 0 at 0.2mm
M114
G1 Z.2 F10800
;AFTER_LAYER_CHANGE
;0.2
M114
;CUSTOM_GCODE
M109 S225
G1 E-1 F2400
G1 X72.71 Y86.727 F10800
G1 E1 F2400
M204 S1000
;TYPE:Skirt/Brim
;WIDTH:0.42
G1 F1200
G1 X76.298 Y83.718 E.16151
G1 X77.045 Y83.243 E.03053
G1 X77.844 Y82.901 E.02997
G1 X78.689 Y82.692 E.03003
G1 X79.526 Y82.623 E.02898
G1 X136.121 Y82.623 E1.95195
G1 X137.217 Y82.74 E.03801
G1 X138.227 Y83.061 E.03653
G1 X139.149 Y83.57 E.03634
G1 X139.988 Y84.285 E.038
G1 X144.021 Y89.14 E.21768
G1 X144.62 Y90.409 E.04842
G1 X144.873 Y91.843 E.0502
G1 X144.876 Y103.713 E.40941
G1 X144.778 Y104.627 E.0317
G1 X144.526 Y105.511 E.0317
G1 X143.93 Y106.649 E.04432
G1 X143.08 Y107.613 E.04432
G1 X138.702 Y111.282 E.197
G1 X137.992 Y111.738 E.02911
G1 X137.18 Y112.091 E.03053
G1 X136.311 Y112.308 E.0309
G1 X135.449 Y112.377 E.02981
G1 X78.279 Y112.341 E1.97179
G1 X77.426 Y112.171 E.03001
G1 X76.603 Y111.862 E.0303
G1 X75.851 Y111.43 E.02993
G1 X75.141 Y110.846 E.03169
G1 X71.25 Y106.243 E.20787
G1 X70.764 Y105.495 E.03079
G1 X70.409 Y104.68 E.03064
G1 X70.201 Y103.863 E.02911
G1 X70.124 Y103.064 E.02767
G1 X70.123 Y91.399 E.40233
G1 X70.198 Y90.504 E.03099
G1 X70.411 Y89.662 E.02993
G1 X70.996 Y88.461 E.04608
G1 X71.89 Y87.414 E.04746
G1 X72.664 Y86.765 E.03484
; printing object ısı kulesi.STL id:0 copy 0
;WIPE_START
G1 F8640
G1 X75.422 Y84.452 E-.95
;WIPE_END
G1 E-.05 F2400
G1 X73.415 Y90.673 F10800
G1 E1 F2400
;TYPE:Perimeter
G1 F1200
G1 X73.504 Y90.447 E.00837
G1 X73.652 Y90.184 E.01043
G1 X73.835 Y89.943 E.01043
G1 X74.06 Y89.719 E.01095
G1 X78.185 Y86.26 E.18565
G1 X78.381 Y86.123 E.00825
G1 X78.757 Y85.935 E.01452
G1 X78.934 Y85.876 E.00641
G1 X79.243 Y85.81 E.0109
G1 X79.572 Y85.787 E.01138
G1 X136.126 Y85.787 E1.95053
G1 X136.589 Y85.842 E.01609
G1 X136.808 Y85.904 E.00784
G1 X137.22 Y86.092 E.01564
G1 X137.586 Y86.36 E.01564
G1 X137.749 Y86.524 E.00799
G1 X141.312 Y90.784 E.19155
G1 X141.487 Y91.081 E.01189
G1 X141.614 Y91.404 E.01197
G1 X141.69 Y91.745 E.01205
G1 X141.713 Y92.072 E.01129
G1 X141.713 Y103.621 E.39834
G1 X141.679 Y103.975 E.01224
G1 X141.595 Y104.31 E.01193
G1 X141.48 Y104.587 E.01034
G1 X141.327 Y104.848 E.01044
G1 X141.14 Y105.085 E.01041
G1 X140.941 Y105.28 E.00958
G1 X136.815 Y108.74 E.18573
G1 X136.619 Y108.877 E.00825
G1 X136.28 Y109.05 E.01312
G1 X136.064 Y109.125 E.0079
G1 X135.757 Y109.19 E.01081
G1 X135.428 Y109.213 E.01138
G1 X78.71 Y109.203 E1.95619
G1 X78.34 Y109.139 E.01295
G1 X77.948 Y108.995 E.01441
G1 X77.589 Y108.781 E.01441
G1 X77.302 Y108.53 E.01313
G1 X73.76 Y104.315 E.1899
G1 X73.53 Y103.956 E.01471
G1 X73.376 Y103.566 E.01445
G1 X73.31 Y103.255 E.01098
G1 X73.288 Y102.975 E.00967
G1 X73.287 Y91.422 E.39845
G1 X73.315 Y91.06 E.01254
G1 X73.393 Y90.729 E.01173
G1 X72.941 Y91.002 F10800
;TYPE:External perimeter
G1 F1200
G1 X73.033 Y90.613 E.01377
G1 X73.163 Y90.285 E.01218
G1 X73.337 Y89.976 E.01222
G1 X73.551 Y89.694 E.01221
G1 X73.806 Y89.44 E.0124
G1 X77.955 Y85.96 E.18677
G1 X78.179 Y85.803 E.00944
G1 X78.62 Y85.583 E.01701
G1 X78.834 Y85.511 E.00778
G1 X79.19 Y85.436 E.01255
G1 X79.559 Y85.41 E.01274
G1 X136.139 Y85.41 E1.95142
G1 X136.411 Y85.429 E.0094
G1 X136.672 Y85.474 E.00916
G1 X136.928 Y85.546 E.00917
G1 X137.175 Y85.644 E.00917
G1 X137.411 Y85.766 E.00916
G1 X137.633 Y85.912 E.00917
G1 X137.839 Y86.08 E.00917
G1 X138.028 Y86.27 E.00922
G1 X141.621 Y90.566 E.19318
G1 X141.827 Y90.916 E.01399
G1 X141.976 Y91.294 E.01402
G1 X142.064 Y91.691 E.01404
G1 X142.09 Y92.059 E.01271
G1 X142.09 Y103.639 E.3994
G1 X142.052 Y104.039 E.01385
G1 X141.953 Y104.429 E.01388
G1 X141.818 Y104.755 E.01218
G1 X141.639 Y105.061 E.01222
G1 X141.421 Y105.337 E.01213
G1 X141.195 Y105.559 E.01093
G1 X137.045 Y109.04 E.1868
G1 X136.821 Y109.197 E.00944
G1 X136.42 Y109.401 E.0155
G1 X136.165 Y109.489 E.00932
G1 X135.81 Y109.564 E.01252
G1 X135.441 Y109.59 E.01274
G1 X78.678 Y109.58 E1.95776
G1 X78.242 Y109.505 E.01524
G1 X77.785 Y109.337 E.01681
G1 X77.366 Y109.087 E.01681
G1 X77.032 Y108.795 E.0153
G1 X73.46 Y104.545 E.19147
G1 X73.193 Y104.126 E.01715
G1 X73.011 Y103.666 E.01706
G1 X72.936 Y103.309 E.01258
G1 X72.91 Y102.99 E.01103
G1 X72.91 Y91.408 E.39946
G1 X72.937 Y91.062 E.01198
G1 X73.314 Y90.858 F10800
;WIPE_START
G1 F8640
G1 X73.033 Y90.613 E-.12104
G1 X73.163 Y90.285 E-.09323
G1 X73.337 Y89.976 E-.09348
G1 X73.551 Y89.694 E-.09345
G1 X73.806 Y89.44 E-.0949
G1 X75.124 Y88.335 E-.4539
;WIPE_END
G1 E-.05 F2400
G1 X141.333 Y91.042 F10800
G1 E1 F2400
;TYPE:Solid infill
;WIDTH:0.420282
G1 F1200
G1 X136.395 Y86.104 E.24102
G1 X136.109 Y86.07 E.00994
G1 X135.828 Y86.07 E.00972
G1 X141.371 Y91.614 E.27061
G1 X141.409 Y91.786 E.00608
G1 X141.43 Y92.207 E.01453
G1 X135.294 Y86.07 E.29953
G1 X134.76 Y86.07 E.01842
G1 X141.43 Y92.74 E.32557
G1 X141.43 Y93.274 E.01842
G1 X134.227 Y86.07 E.35162
G1 X133.693 Y86.07 E.01842
G1 X141.43 Y93.807 E.37767
G1 X141.43 Y94.341 E.01842
G1 X133.159 Y86.07 E.40372
G1 X132.625 Y86.07 E.01842
G1 X141.43 Y94.875 E.42977
G1 X141.43 Y95.408 E.01842
G1 X132.092 Y86.07 E.45582
G1 X131.558 Y86.07 E.01842
G1 X141.43 Y95.942 E.48187
G1 X141.43 Y96.476 E.01842
G1 X131.024 Y86.07 E.50792
G1 X130.491 Y86.07 E.01842
G1 X141.43 Y97.009 E.53397
G1 X141.43 Y97.543 E.01842
G1 X129.957 Y86.07 E.56002
G1 X129.423 Y86.07 E.01842
G1 X141.43 Y98.077 E.58606
G1 X141.43 Y98.61 E.01842
G1 X128.89 Y86.07 E.61211
G1 X128.356 Y86.07 E.01842
G1 X141.43 Y99.144 E.63816
G1 X141.43 Y99.678 E.01842
G1 X127.822 Y86.07 E.66421
G1 X127.289 Y86.07 E.01842
G1 X141.43 Y100.211 E.69026
G1 X141.43 Y100.745 E.01842
G1 X126.755 Y86.07 E.71631
G1 X126.221 Y86.07 E.01842
G1 X141.43 Y101.279 E.74236
G1 X141.43 Y101.812 E.01842
G1 X125.688 Y86.07 E.76841
G1 X125.154 Y86.07 E.01842
G1 X141.43 Y102.346 E.79446
G1 X141.43 Y102.88 E.01842
G1 X124.62 Y86.07 E.8205
G1 X124.087 Y86.07 E.01842
G1 X141.43 Y103.413 E.84655
G1 X141.401 Y103.918 E.01745
G1 X123.553 Y86.07 E.87118
G1 X123.019 Y86.07 E.01842
G1 X141.28 Y104.331 E.89134
G1 X141.097 Y104.681 E.01365
G1 X122.486 Y86.07 E.90844
G1 X121.952 Y86.07 E.01842
G1 X140.853 Y104.971 E.92258
G1 X140.57 Y105.222 E.01305
G1 X121.418 Y86.07 E.93485
G1 X120.885 Y86.07 E.01842
G1 X140.28 Y105.465 E.94673
G1 X139.99 Y105.709 E.01307
G1 X120.351 Y86.07 E.95861
G1 X119.817 Y86.07 E.01842
G1 X139.699 Y105.952 E.9705
G1 X139.409 Y106.196 E.01307
G1 X119.284 Y86.07 E.98238
G1 X118.75 Y86.07 E.01842
G1 X139.119 Y106.439 E.99426
G1 X138.829 Y106.683 E.01307
G1 X118.216 Y86.07 E1.00614
G1 X117.683 Y86.07 E.01842
G1 X138.538 Y106.926 E1.01802
G1 X138.248 Y107.169 E.01307
G1 X117.149 Y86.07 E1.02991
G1 X116.615 Y86.07 E.01842
G1 X137.958 Y107.413 E1.04179
G1 X137.668 Y107.656 E.01307
G1 X116.082 Y86.07 E1.05367
G1 X115.548 Y86.07 E.01842
G1 X137.378 Y107.9 E1.06555
G1 X137.087 Y108.143 E.01307
G1 X115.014 Y86.07 E1.07744
G1 X114.481 Y86.07 E.01842
G1 X136.797 Y108.387 E1.08932
G1 X136.49 Y108.613 E.01317
G1 X113.947 Y86.07 E1.10036
G1 X113.413 Y86.07 E.01842
G1 X136.136 Y108.793 E1.10914
G1 X135.982 Y108.853 E.00569
G1 X135.718 Y108.909 E.0093
G1 X112.88 Y86.07 E1.11482
G1 X112.346 Y86.07 E.01842
G1 X135.206 Y108.93 E1.11585
G1 X134.672 Y108.93 E.01842
G1 X111.812 Y86.07 E1.11585
G1 X111.279 Y86.07 E.01842
G1 X134.138 Y108.93 E1.11584
G1 X133.605 Y108.93 E.01842
G1 X110.745 Y86.07 E1.11584
G1 X110.211 Y86.07 E.01842
G1 X133.071 Y108.93 E1.11583
G1 X132.537 Y108.93 E.01842
G1 X109.677 Y86.07 E1.11583
G1 X109.144 Y86.07 E.01842
G1 X132.003 Y108.93 E1.11582
G1 X131.469 Y108.929 E.01842
G1 X108.61 Y86.07 E1.11582
G1 X108.076 Y86.07 E.01842
G1 X130.936 Y108.929 E1.11581
G1 X130.402 Y108.929 E.01842
G1 X107.543 Y86.07 E1.11581
G1 X107.009 Y86.07 E.01842
G1 X129.868 Y108.929 E1.1158
G1 X129.334 Y108.929 E.01842
G1 X106.475 Y86.07 E1.1158
G1 X105.942 Y86.07 E.01842
G1 X128.801 Y108.929 E1.1158
G1 X128.267 Y108.929 E.01842
G1 X105.408 Y86.07 E1.11579
G1 X104.874 Y86.07 E.01842
G1 X127.733 Y108.929 E1.11579
G1 X127.199 Y108.929 E.01842
G1 X104.341 Y86.07 E1.11578
G1 X103.807 Y86.07 E.01842
G1 X126.666 Y108.929 E1.11578
G1 X126.132 Y108.928 E.01842
G1 X103.273 Y86.07 E1.11577
G1 X102.74 Y86.07 E.01842
G1 X125.598 Y108.928 E1.11577
G1 X125.064 Y108.928 E.01842
G1 X102.206 Y86.07 E1.11576
G1 X101.672 Y86.07 E.01842
G1 X124.531 Y108.928 E1.11576
G1 X123.997 Y108.928 E.01842
G1 X101.139 Y86.07 E1.11575
G1 X100.605 Y86.07 E.01842
G1 X123.463 Y108.928 E1.11575
G1 X122.929 Y108.928 E.01842
G1 X100.071 Y86.07 E1.11575
G1 X99.538 Y86.07 E.01842
G1 X122.395 Y108.928 E1.11574
G1 X121.862 Y108.928 E.01842
G1 X99.004 Y86.07 E1.11574
G1 X98.47 Y86.07 E.01842
G1 X121.328 Y108.928 E1.11573
G1 X120.794 Y108.927 E.01842
G1 X97.937 Y86.07 E1.11573
G1 X97.403 Y86.07 E.01842
G1 X120.26 Y108.927 E1.11572
G1 X119.727 Y108.927 E.01842
G1 X96.869 Y86.07 E1.11572
G1 X96.336 Y86.07 E.01842
G1 X119.193 Y108.927 E1.11571
G1 X118.659 Y108.927 E.01842
G1 X95.802 Y86.07 E1.11571
G1 X95.268 Y86.07 E.01842
G1 X118.125 Y108.927 E1.1157
G1 X117.592 Y108.927 E.01842
G1 X94.735 Y86.07 E1.1157
G1 X94.201 Y86.07 E.01842
G1 X117.058 Y108.927 E1.1157
G1 X116.524 Y108.927 E.01842
G1 X93.667 Y86.07 E1.11569
G1 X93.134 Y86.07 E.01842
G1 X115.99 Y108.927 E1.11569
G1 X115.456 Y108.927 E.01842
G1 X92.6 Y86.07 E1.11568
G1 X92.066 Y86.07 E.01842
G1 X114.923 Y108.926 E1.11568
G1 X114.389 Y108.926 E.01842
G1 X91.533 Y86.07 E1.11567
G1 X90.999 Y86.07 E.01842
G1 X113.855 Y108.926 E1.11567
G1 X113.321 Y108.926 E.01842
G1 X90.465 Y86.07 E1.11566
G1 X89.932 Y86.07 E.01842
G1 X112.788 Y108.926 E1.11566
G1 X112.254 Y108.926 E.01842
G1 X89.398 Y86.07 E1.11566
G1 X88.864 Y86.07 E.01842
G1 X111.72 Y108.926 E1.11565
G1 X111.186 Y108.926 E.01842
G1 X88.331 Y86.07 E1.11565
G1 X87.797 Y86.07 E.01842
G1 X110.653 Y108.926 E1.11564
G1 X110.119 Y108.926 E.01842
G1 X87.263 Y86.07 E1.11564
G1 X86.73 Y86.07 E.01842
G1 X109.585 Y108.925 E1.11563
G1 X109.051 Y108.925 E.01842
G1 X86.196 Y86.07 E1.11563
G1 X85.662 Y86.07 E.01842
G1 X108.518 Y108.925 E1.11562
G1 X107.984 Y108.925 E.01842
G1 X85.128 Y86.07 E1.11562
G1 X84.595 Y86.07 E.01842
G1 X107.45 Y108.925 E1.11561
G1 X106.916 Y108.925 E.01842
G1 X84.061 Y86.07 E1.11561
G1 X83.527 Y86.07 E.01842
G1 X106.382 Y108.925 E1.11561
G1 X105.849 Y108.925 E.01842
G1 X82.994 Y86.07 E1.1156
G1 X82.46 Y86.07 E.01842
G1 X105.315 Y108.925 E1.1156
G1 X104.781 Y108.925 E.01842
G1 X81.926 Y86.07 E1.11559
G1 X81.393 Y86.07 E.01842
G1 X104.247 Y108.924 E1.11559
G1 X103.714 Y108.924 E.01842
G1 X80.859 Y86.07 E1.11558
G1 X80.325 Y86.07 E.01842
G1 X103.18 Y108.924 E1.11558
G1 X102.646 Y108.924 E.01842
G1 X79.792 Y86.07 E1.11557
G1 X79.28 Y86.091 E.01769
G1 X102.112 Y108.924 E1.11452
G1 X101.579 Y108.924 E.01842
G1 X78.863 Y86.208 E1.10882
G1 X78.674 Y86.283 E.00702
G1 X78.509 Y86.388 E.00674
G1 X101.045 Y108.924 E1.10003
G1 X100.511 Y108.924 E.01842
G1 X78.202 Y86.615 E1.08897
G1 X77.911 Y86.858 E.01307
G1 X99.977 Y108.924 E1.07708
G1 X99.443 Y108.924 E.01842
G1 X77.621 Y87.101 E1.0652
G1 X77.331 Y87.345 E.01307
G1 X98.91 Y108.924 E1.05331
G1 X98.376 Y108.923 E.01842
G1 X77.041 Y87.588 E1.04142
G1 X76.75 Y87.832 E.01307
G1 X97.842 Y108.923 E1.02954
G1 X97.308 Y108.923 E.01842
G1 X76.46 Y88.075 E1.01765
G1 X76.17 Y88.318 E.01307
G1 X96.775 Y108.923 E1.00576
G1 X96.241 Y108.923 E.01842
G1 X75.88 Y88.562 E.99388
G1 X75.589 Y88.805 E.01307
G1 X95.707 Y108.923 E.98199
G1 X95.173 Y108.923 E.01842
G1 X75.299 Y89.049 E.9701
G1 X75.009 Y89.292 E.01307
G1 X94.64 Y108.923 E.95821
G1 X94.106 Y108.923 E.01842
G1 X74.719 Y89.536 E.94633
G1 X74.429 Y89.779 E.01307
G1 X93.572 Y108.923 E.93444
G1 X93.038 Y108.922 E.01842
G1 X74.147 Y90.031 E.92212
G1 X73.903 Y90.321 E.01307
G1 X92.505 Y108.922 E.90798
G1 X91.971 Y108.922 E.01842
G1 X73.719 Y90.671 E.89089
G1 X73.664 Y90.811 E.0052
G1 X73.6 Y91.085 E.00971
G1 X91.437 Y108.922 E.87068
G1 X90.903 Y108.922 E.01842
G1 X73.57 Y91.589 E.84608
G1 X73.57 Y92.122 E.01842
G1 X90.369 Y108.922 E.82002
G1 X89.836 Y108.922 E.01842
G1 X73.57 Y92.656 E.79397
G1 X73.57 Y93.19 E.01842
G1 X89.302 Y108.922 E.76791
G1 X88.768 Y108.922 E.01842
G1 X73.57 Y93.724 E.74186
G1 X73.57 Y94.257 E.01842
G1 X88.234 Y108.922 E.7158
G1 X87.701 Y108.922 E.01842
G1 X73.57 Y94.791 E.68975
G1 X73.57 Y95.325 E.01842
G1 X87.167 Y108.921 E.66369
G1 X86.633 Y108.921 E.01842
G1 X73.57 Y95.858 E.63764
G1 X73.57 Y96.392 E.01842
G1 X86.099 Y108.921 E.61158
G1 X85.566 Y108.921 E.01842
G1 X73.57 Y96.926 E.58553
G1 X73.57 Y97.459 E.01842
G1 X85.032 Y108.921 E.55947
G1 X84.498 Y108.921 E.01842
G1 X73.57 Y97.993 E.53342
G1 X73.57 Y98.527 E.01842
G1 X83.964 Y108.921 E.50736
G1 X83.43 Y108.921 E.01842
G1 X73.57 Y99.06 E.4813
G1 X73.57 Y99.594 E.01842
G1 X82.897 Y108.921 E.45525
G1 X82.363 Y108.921 E.01842
G1 X73.57 Y100.128 E.42919
G1 X73.57 Y100.662 E.01842
G1 X81.829 Y108.92 E.40314
G1 X81.295 Y108.92 E.01842
G1 X73.57 Y101.195 E.37708
G1 X73.57 Y101.729 E.01842
G1 X80.762 Y108.92 E.35103
G1 X80.228 Y108.92 E.01842
G1 X73.57 Y102.263 E.32497
G1 X73.57 Y102.796 E.01842
G1 X79.694 Y108.92 E.29892
G1 X79.16 Y108.92 E.01842
G1 X73.627 Y103.386 E.27011
G1 X73.647 Y103.484 E.00345
G1 X73.783 Y103.826 E.01271
G1 X73.988 Y104.147 E.01315
G1 X74.694 Y104.987 E.03787
G1 X78.796 Y109.09 E.20024
; stop printing object ısı kulesi.STL id:0 copy 0
M106 S84.15
;LAYER_CHANGE
;Z:0.5
;HEIGHT:0.3
M105
;BEFORE_LAYER_CHANGE
;G92 E0.0
;0.5
M117 Layer 1 at 0.5mm
M118 Printing Layer 1 at 0.5mm
M114
G1 Z.5 F10800
;AFTER_LAYER_CHANGE
;0.5
M114
G1 E-1 F2400
G1 X78.794 Y112.341 F10800
G1 E1 F2400
;TYPE:Skirt/Brim
;WIDTH:0.42
G1 F2700
G1 X78.279 Y112.341 E.02513
G1 X77.426 Y112.171 E.04246
G1 X76.603 Y111.862 E.04286
G1 X75.851 Y111.43 E.04235
G1 X75.141 Y110.846 E.04482
G1 X71.25 Y106.243 E.29407
G1 X70.764 Y105.495 E.04355
G1 X70.409 Y104.68 E.04334
G1 X70.201 Y103.863 E.04118
G1 X70.124 Y103.064 E.03914
G1 X70.123 Y91.399 E.56914
G1 X70.198 Y90.504 E.04384
G1 X70.411 Y89.662 E.04234
G1 X70.996 Y88.461 E.06519
G1 X71.89 Y87.414 E.06714
G1 X76.298 Y83.718 E.28069
G1 X77.045 Y83.243 E.04319
G1 X77.844 Y82.901 E.04239
G1 X78.689 Y82.692 E.04248
G1 X79.526 Y82.623 E.041
G1 X136.121 Y82.623 E2.76129
G1 X137.217 Y82.74 E.05378
G1 X138.227 Y83.061 E.05167
G1 X139.149 Y83.57 E.05141
G1 X139.988 Y84.285 E.05376
G1 X144.021 Y89.14 E.30794
G1 X144.62 Y90.409 E.06849
G1 X144.873 Y91.843 E.07102
G1 X144.876 Y103.713 E.57917
G1 X144.778 Y104.627 E.04484
G1 X144.526 Y105.511 E.04485
G1 X143.93 Y106.649 E.06269
